X:1
T:What My Soul Seeks
T:What My Soul Seeks
T:Arr. Victoria Booth-Clibborn Demarest
T:Catherine Booth-Clibborn, 1918
T:Public Domain Courtesy of the Cyber Hymnal™
T:Public Domain Courtesy of the Cyber Hymnal™
C:Arr. Victoria Booth-Clibborn Demarest
Z:Public Domain
Z:Courtesy of the Cyber Hymnal™
%%score ( 1 2 ) ( 3 4 )
L:1/8
Q:1/4=110
M:4/4
K:F
V:1 treble 
V:2 treble 
V:3 bass 
V:4 bass 
V:1
 [Fc]3 [Fd] [Fc]2 [FA]2 | [Ec]3 [GB] [GB]2 [FA]2 | [DG]2 D2 [CF]2 [FA]2 | [Ec]3 [GB] [FA]4 | %4
w: 1.~What my soul seeks,|O Re- deem- er,|’Tis thy won- drous|gift of love:|
w: 2.~Self re- nounc- ing,|self for- get- ting,|En- vy is to|it un- known;|
w: 3.~Love knows naught of|proud am- bi- tion;|It is meek and|suf- fereth long;|
w: 4.~Face to face with|sin and sor- row,|Spread- ing, deep- ening,|day by day;|
 [Fc]3 [Fd] [Fc]2 [FA]2 | [Ec]3 [GB] [GB]2 [FA]2 | [DG]2 D2 [CF]2 [CE]2 | [EA]3 [EG] F4 | %8
w: Let this Heav’n born|flame for- ev- er|Burn with- in me|from a- bove;|
w: Dear- est in- terests|sac- ri- fic- ing,|Claim- ing no- thing|for its own;|
w: Not in words a-|lone, but act- ion,|It is pa- tient,|kind and strong;|
w: In the Sav- ior’s|steps to fol- low—|Can a- lone such|woes al- lay;|
 [_EF]3 [EG] [DG]2 [DF]2 | [_EF]2 (GA) [DG]2 [DF]2 | [FG]3 [FG] [FA]2 [Fc]2 | %11
w: Love di- vine, love|deep and * ten- der,|Love that “seek- eth|
w: Hearts of stone, hard,|cold and * haught- y,|Hearts which no- thing|
w: In- ter- ced- ing|and pre- * vail- ing,|Hop- ing all things|
w: Slight- ed, wound- ed|and re- * ject- ed,|Death can ne- ver|
 [Fd]2 (cA) (z [Bd][Ac][GB]) | [Ac]3 [Bd] [Ac]2 [FA]2 | [Ac]3 [GB] [FB]2 [FA]2 x | %14
w: not her * * * *|own,” Good for e-|vil e’er can ren-|
w: else can * * * *|move, Melt and change|be- neath the might-|
w: to the * * * *|end; Grieved, des- pised,|yet ne- ver fail-|
w: quench its * * * *|flame; O my soul,|be not de- ject-|
 [DG]2 D2 [CF]2 [CE]2 | [EA]3 [EG] F4 ||"^Refrain" [Fc]3 [FA] F2 [FG]2 | [CF]4 [CE]4 | %18
w: der, Lov- ing the|most hard- ened|one. * * *||
w: y O- ver- whelm-|ing force of|love. * * *||
w: ing, No- thing can|this love of-|fend. Love that nev-|er fail-|
w: ed; Love di- vine|is e’er the|same. * * *||
 [EG]3 [EA] [EB]2 [Ed]2 | [Fd]4 [Fc]4 | [FA]3 [FB] [Fc]2 [Ff]2 | [Ff]4 [Fd]2 [FB]2 | %22
w: ||||
w: ||||
w: eth, Love that sac-|ri- fic-|eth, Love that all|en- dur- eth,|
w: ||||
 [FA]3 [FB] [EA]2 [EG]2 | [CF]8 |] %24
w: ||
w: ||
w: I claim that love|from|
w: ||
V:2
 x8 | x8 | x2 D2 x4 | x8 | x8 | x8 | x2 D2 x4 | x4 F4 | x8 | x2 _E2 x4 | x8 | x2 F2 [EG]4 | x8 | %13
 x9 | x2 D2 x4 | x4 F4 || x4 F2 x2 | x8 | x8 | x8 | x8 | x8 | x8 | x8 |] %24
V:3
 [F,A,]3 [F,B,] [F,A,]2 [F,C]2 | [C,C]3 [E,C] [F,C]2 [F,C]2 | [B,,B,]2 [B,,G,]2 [C,A,]2 [C,F,]2 | %3
 [C,G,]3 [E,C] [F,C]4 | [F,A,]3 [F,B,] [F,A,]2 [F,C]2 | [C,C]3 [E,C] [F,C]2 [F,C]2 | %6
 [B,,B,]2 [B,,G,]2 [C,A,]2 [C,G,]2 | [C,C]3 [C,B,] [F,A,]4 | [F,A,]3 [F,A,] [F,B,]2 [F,B,]2 | %9
 [F,A,]2 [F,C]2 [F,B,]2 [F,B,]2 | [D,=B,]3 [D,B,] [D,C]2 [C,A,]2 | [C,B,]2 [C,A,]2 [C,C]4 | %12
 (C2 D)[F,E] [F,F]2 [F,C]2 | E3 z E [D,D]2 [D,D]2 | B,2 [G,B,]2 [C,A,]2 [C,G,]2 | %15
 [C,C]3 [C,B,] [F,A,]4 || [F,A,]3 [F,C] [F,A,]2 [F,B,]2 | [G,B,]4 [C,B,]4 | %18
 [C,B,]3 [C,A,] [C,G,]2 [C,B,]2 | [F,B,]4 [F,A,]4 | [F,C]3 [G,C] [A,C]2 [A,C]2 | %21
 [B,D]4 [B,D]2 [G,D]2 | C2 C2 [C,C]2 [C,B,]2 | [F,A,]8 |] %24
V:4
 x8 | x8 | x8 | x8 | x8 | x8 | x8 | x8 | x8 | x8 | x8 | x8 | F,3 x5 | C,2 ^C,2 x5 | B,2 x6 | x8 || %16
 x8 | x8 | x8 | x8 | x8 | x8 | C2 C2 x4 | x8 |] %24

